!!!OTL-incipit: ES LEUCHTEN DREI STERN UEBER EIN KOENIGSHAUS
!!!ARE: Europa, Mitteleuropa, Deutschland, Westfalen
!!!SCT: Z0013
!!!TXL: @@DE
!!!YEM: Copyright 1995, estate of Helmut Schaffrath.
**kern	**text
*ICvox	*
*M3/8	*
*k[]	*
*C:	*
!LO:TX:a:t=Weſtphäliſch.	!
{8g	Es
=1	=1
8.cc	leuch-
16b	-ten
8cc	drei
=2	=2
8.dd	Stern
16cc	ü-
8dd	-ber
=3	=3
8.ee	ein
16ddL	Kö-
16ee	-nigs-
16ffJ	.
=4	=4
4gg}	-haus,
{8g	drei
=5	=5
16bqq	.
8a\	Jung-
8ff	-fräu-
8ee	-lein
=6	=6
8.dd	wohn-
16cc	-ten
8dd	dar-
=7	=7
4.ee	-ein.
=8	=8
4r}	.
{8g	Es
=9	=9
8.cc	leuch-
16b	-ten
8cc	drei
=10	=10
8.dd	Stern
16cc	ü-
8dd	-ber
=11	=11
8.ee	ein
16ddL	Kö-
16ee	-nigs-
16ffJ	.
=12	=12
4gg}	-haus,
{8g	drei
=13	=13
16bqq	.
8a\	Jung-
8ff	-fräu-
8ee	-lein
=14	=14
8.dd	wohn-
16cc	-ten
8dd	dar-
=15	=15
4.ee	-ein.
=16	=16
4r}	.
{(16ccL	Jhr
16ddJ)	.
=17	=17
8ee	Va-
(16eeL	-ter
16ddJ)	.
16eeL	war
16ffJ	.
=18	=18
8ee	weit
8ff	ü-
8gg	-ber
=19	=19
16aaqq	.
(8ggL	Land
8ffJ)	.
8ee	hin-
=20	=20
4dd}	-aus,
{16bL	auf
16ccJ	.
=21	=21
8.dd	ei-
(16ccL	-nem
16dd	.
16eeJ)	.
=22	=22
(8ddL	wei-
8eeJ)	.
8ff	-ßen
=23	=23
4ee	Röſ-
8dd/	-ſe-
=24	=24
4cc/	-lein,
8r}	.
=25	=25
{8.ee	Ster-
16ffL	-ne-
16ee	.
16ddJ	-lein
=26	=26
16ddqq	.
8cc	blin-
8b	-ʒet
8cc	ʒu
=27	=27
4.dd	Lei-
=28	=28
4cc}	-de!
==;;	==;;
!!!AGN: Sagen - Lied, Romanze, Tod
!!!ONB: ESAC (Essen Associative Code) Database: ZUCCAL
!!!AMT: simple triple
!!!AIN: vox
!!!EED: Helmut Schaffrath
!!!EEV: 1.0
!!!GTL: I. Ernste Romanzen und Sagen.
!!!URL-scan: https://www.digitale-sammlungen.de/de/view/bsb11160571?page=35
!!!ENC: Anna Maria Matuszewska
!!!EEV: 2025/01/23
*-	*-
